dist/icons/svgs/arrow-left-long-outline.svg

<svg xmlns="http://www.w3.org/2000/svg" width="24" height="24" fill="currentcolor" class="icon-arrow-left-long-outline" viewBox="0 0 24 24">
  <path d="M2.27344 11.3359L7.58594 6.0625C7.9375 5.67188 8.52344 5.67188 8.875 6.0625C9.26562 6.41406 9.26562 7 8.875 7.35156L5.16406 11.0625H21.0625C21.5703 11.0625 22 11.4922 22 12C22 12.5469 21.5703 12.9375 21.0625 12.9375L5.16406 12.9766L8.875 16.6875C9.26562 17.0391 9.26562 17.625 8.875 17.9766C8.52344 18.3672 7.9375 18.3672 7.58594 17.9766L2.27344 12.6641C1.88281 12.3125 1.88281 11.7266 2.27344 11.3359Z"/>
</svg>

<svg xmlns="http://www.w3.org/2000/svg" width="24" height="24" fill="currentColor" class="icon-arrow-left-long-outline" viewBox="0 0 24 24">
  <path d="m2.273 11.336 5.313-5.273a.855.855 0 0 1 1.289 0c.39.351.39.937 0 1.289l-3.71 3.71h15.898A.95.95 0 0 1 22 12c0 .547-.43.938-.937.938l-15.899.039 3.711 3.71c.39.352.39.938 0 1.29a.856.856 0 0 1-1.29 0l-5.312-5.313c-.39-.351-.39-.937 0-1.328"/>
</svg>
